!!!COM:	Bach, Johann Sebastian
!!!CDT:	1685/02/21/-1750/07/28/
!!!OTL@@DE:	So gibst du nun, mein Jesu, gute Nacht
!!!SCT:	BWV 412
!!!PC#:	206
!!!AGN:	chorale
**kern	**kern	**kern	**kern
*ICvox	*ICvox	*ICvox	*ICvox
*Ibass	*Itenor	*Ialto	*Isoprn
*I"Bass	*I"Tenor	*I"Alto	*I"Soprano
*clefF4	*clefGv2	*clefG2	*clefG2
*k[b-]	*k[b-]	*k[b-]	*k[b-]
*g:dor	*g:dor	*g:dor	*g:dor
*M4/4	*M4/4	*M4/4	*M4/4
*met(c)	*met(c)	*met(c)	*met(c)
*MM100	*MM100	*MM100	*MM100
4G	4d	4g	4b-
=1	=1	=1	=1
4.F#	4d	8aL	4.dd
.	.	8gJ	.
.	4d	4a	.
8F#	.	.	8cc
4G;	4d;	4g;	4b-;
8GL	4B-	4g	4dd
8FJ	.	.	.
=2	=2	=2	=2
4E-	4c	4g	4cc
4D	4d	4f	4b-
4.C	4G	8e-L	4b-
.	.	8dJ	.
.	8FL	4e-	4a
8C	8E-J	.	.
=3	=3	=3	=3
2BB-;	2F;	2d;	2b-;
4r	4ry	4ry	4r
4B-	4B-	4f	4dd
=4	=4	=4	=4
4.A	8cL	4.f	4.ff
.	8B-J	.	.
.	4c	.	.
8A	.	8f	8ee-
4B-;	4B-;	4f;	4dd;
4F#	4A	4d	8ddL
.	.	.	8ccJ
=5	=5	=5	=5
8GL	8GL	4d	8b-L
8FnXJ	8AJ	.	8aJ
8E-L	4B-	8gL	4g
8DJ	.	8fJ	.
4C	8e-XL	4g	4.a
.	8d	.	.
4C	8c	4e-	.
.	8B-J	.	8g
=6	=6	=6	=6
4D	4A	4d	4f#
4DD;	4F#;	4A;	4d;
4r	4ry	4ry	4r
4D	4d	4f	4a
=7	=7	=7	=7
4.E	4c	8gL	4.cc
.	.	8fJ	.
.	4c	4g	.
8E	.	.	8b-
4F	4c	8fL	4a
.	.	8aJ	.
4FF	4d	8gL	4b-
.	.	8fJ	.
=8	=8	=8	=8
4C	4G	4e	4b-
4F	8AL	[4f	4a
.	8B-J	.	.
4.C	4.c	4f_	4.g
.	.	8fL]	.
8C	8c	8eJ	8g
=9	=9	=9	=9
2FF;	2c;	2f;	2a;
4r	4ry	4ry	4r
8FL	4c	4f	4a
8E-J	.	.	.
=10	=10	=10	=10
8DL	4d	4f	4b-
8C	.	.	.
8BB-	4c	4f	4cc
8AAJ	.	.	.
4BB-;	4B-;	4f;	4dd;
8BB-L	4d	4f	8ddL
8AAJ	.	.	16eeL
.	.	.	16ffJJ
=11	=11	=11	=11
4GG	8gL	8b-L	4.ee
.	8fJ	8aJ	.
4GG#	4e	4b	.
.	.	.	8dd
4AA	4e	4a	4cc#
4D	4f	4a	4dd
=12	=12	=12	=12
2AA	8eL	4a	4.dd
.	8dJ	.	.
.	4e	4a	.
.	.	.	8cc#
4D;	4f#;	4a;	4dd;
8DL	4A	4d	4f#
8CnXJ	.	.	.
=13	=13	=13	=13
8BB-L	4B-	4d	4g
8AA	.	.	.
8GG	4A	4d	4a
8FF#J	.	.	.
4GG;	4G;	4d;	4b-;
8E-L	4B-	8gL	8gL
8DJ	.	8fnXJ	16aL
.	.	.	16b-JJ
=14	=14	=14	=14
4C	8cL	8e-L	4.a
.	8B-J	8dJ	.
4C#	4A	4e	.
.	.	.	8g
8DL	4A	4d	4f#
8CJ	.	.	.
8BB-L	4B-	4d	4g
8GGJ	.	.	.
=15	=15	=15	=15
2D	8AL	4d	4.g
.	8GJ	.	.
.	4A	4d	.
.	.	.	8f#
4GG;	4B;	4d;	4g;
==	==	==	==
*-	*-	*-	*-
!!!hum2abc: -Q ''
!!!title: @{PC#}. @{OTL@@DE}
!!!YOR1: 371 vierstimmige Choralges&auml;nge von Johann Sebastian Bach, 
!!!YOR2: 4th ed. by Alfred D&ouml;rffel (Leipzig: Breitkopf und H&auml;rtel, 
!!!YOR2: c.1875). 178 pp. Plate "V.A.10".  reprint: J.S. Bach, 371 Four-Part 
!!!YOR4: Chorales (New York: Associated Music Publishers, Inc., c.1940).
!!!SMS: B&H, 4th ed, Alfred D&ouml;rffel, c.1875, plate V.A.10
!!!EED:  Craig Stuart Sapp
!!!EEV:  2009/05/22
